src/images/2Pills_Mint&Beige_Title-01.svg

<svg width="127" height="133" viewBox="0 0 127 133" fill="none" xmlns="http://www.w3.org/2000/svg">
<g clip-path="url(#clip0)">
<path d="M102.607 49.6075C116.079 49.6075 127 38.7297 127 25.3114C127 11.893 116.079 1.01526 102.607 1.01526C89.1345 1.01526 78.2131 11.893 78.2131 25.3114C78.2131 38.7297 89.1345 49.6075 102.607 49.6075Z" fill="#F8EEC8"/>
<g opacity="0.53">
<path opacity="0.53" d="M119.754 7.94653C123.559 12.8158 125.362 18.9447 124.796 25.0892C124.23 31.2337 121.338 36.9336 116.706 41.032C112.075 45.1304 106.052 47.3202 99.8592 47.1571C93.6663 46.994 87.7677 44.4901 83.3606 40.1536C85.4102 42.7764 87.9783 44.9525 90.906 46.5472C93.8337 48.142 97.0589 49.1215 100.382 49.4251C103.705 49.7288 107.055 49.3501 110.225 48.3126C113.395 47.2751 116.318 45.6007 118.813 43.3932C121.307 41.1856 123.321 38.4917 124.728 35.4781C126.135 32.4646 126.907 29.1955 126.995 25.873C127.084 22.5505 126.486 19.2453 125.241 16.1619C123.995 13.0785 122.128 10.2824 119.754 7.94653Z" fill="#F3C74A"/>
</g>
<g style="mix-blend-mode:multiply">
<g style="mix-blend-mode:multiply">
<path d="M82.8687 11.4325L119.574 42.4558C120.541 41.6394 120.393 42.0476 121.213 41.0516C122.033 40.0555 121.68 40.2923 122.344 39.2065L85.6391 8.18323C84.6719 8.99963 84.8195 8.59959 83.9998 9.5956C83.1801 10.5916 83.5326 10.3549 82.8687 11.4325Z" fill="#F8EEC8"/>
</g>
</g>
<path d="M41.656 117.771C64.662 117.771 83.312 99.1344 83.312 76.145C83.312 53.1556 64.662 34.519 41.656 34.519C18.65 34.519 0 53.1556 0 76.145C0 99.1344 18.65 117.771 41.656 117.771Z" fill="#C0D5D0"/>
<g style="mix-blend-mode:multiply" opacity="0.45">
<g style="mix-blend-mode:multiply" opacity="0.45">
<path d="M71.2509 46.2983C77.8253 54.6441 80.9563 65.1731 80.0056 75.7388C79.0548 86.3045 74.0939 96.1112 66.1343 103.16C58.1746 110.208 47.8156 113.967 37.1693 113.671C26.5229 113.374 16.3909 109.045 8.83887 101.565C12.3637 106.039 16.7709 109.748 21.789 112.462C26.8071 115.176 32.33 116.838 38.0174 117.345C43.7047 117.853 49.4363 117.196 54.859 115.414C60.2817 113.632 65.2807 110.763 69.5482 106.984C73.8157 103.205 77.2613 98.5962 79.6728 93.4408C82.0843 88.2855 83.4107 82.693 83.5702 77.0078C83.7297 71.3226 82.719 65.6651 80.6003 60.3837C78.4816 55.1022 75.2998 50.3087 71.2509 46.2983Z" fill="#9FB7B2"/>
</g>
</g>
<g opacity="0.6">
<path opacity="0.6" d="M51.6193 34.9491L17.0215 109.582C18.8346 110.796 18.0687 110.695 20.1085 111.637C22.1482 112.579 21.5777 112.057 23.68 112.649L58.2856 38.016C56.4725 36.8017 57.2384 36.9029 55.1596 35.961C53.0807 35.0192 53.7216 35.5407 51.6193 34.9491Z" fill="#6A9A9B"/>
</g>
</g>
<defs>
<clipPath id="clip0">
<rect width="127" height="133" fill="white"/>
</clipPath>
</defs>
</svg>

<svg width="127" height="133" viewBox="0 0 127 133" fill="none" xmlns="http://www.w3.org/2000/svg"><g clip-path="url(#clip0)"><path d="M102.607 49.608C116.079 49.608 127 38.73 127 25.31c0-13.418-10.921-24.296-24.393-24.296-13.472 0-24.394 10.878-24.394 24.296 0 13.419 10.922 24.297 24.394 24.297z" fill="#F8EEC8"/><path opacity=".53" d="M119.754 7.947a24.229 24.229 0 0 1 5.042 17.142 24.263 24.263 0 0 1-8.089 15.943 24.453 24.453 0 0 1-16.847 6.125 24.442 24.442 0 0 1-16.5-7.003 24.367 24.367 0 0 0 7.546 6.393 24.49 24.49 0 0 0 19.32 1.765 24.422 24.422 0 0 0 8.587-4.919 24.29 24.29 0 0 0 5.915-7.915 24.207 24.207 0 0 0 .513-19.316 24.28 24.28 0 0 0-5.487-8.215z" fill="#F3C74A"/><path d="M82.87 11.432l36.704 31.024c.967-.817.82-.408 1.639-1.404.82-.996.468-.76 1.132-1.846L85.64 8.183C84.672 9 84.82 8.6 84 9.596s-.467.759-1.13 1.836z" fill="#F8EEC8"/><path d="M41.656 117.771c23.006 0 41.656-18.637 41.656-41.626 0-22.99-18.65-41.626-41.656-41.626S0 53.156 0 76.145c0 22.99 18.65 41.626 41.656 41.626z" fill="#C0D5D0"/><path d="M71.25 46.298a41.552 41.552 0 0 1 8.756 29.44 41.612 41.612 0 0 1-13.872 27.422 41.938 41.938 0 0 1-28.965 10.511 41.92 41.92 0 0 1-28.33-12.106 41.801 41.801 0 0 0 12.95 10.897 41.985 41.985 0 0 0 33.07 2.952 41.876 41.876 0 0 0 14.69-8.43 41.68 41.68 0 0 0 10.124-13.543 41.52 41.52 0 0 0 .928-33.057 41.656 41.656 0 0 0-9.35-14.086z" fill="#9FB7B2" opacity=".45"/><path opacity=".6" d="M51.62 34.95L17.02 109.581c1.814 1.214 1.048 1.113 3.087 2.055 2.04.942 1.47.42 3.572 1.012l34.606-74.633c-1.814-1.214-1.048-1.113-3.126-2.055-2.08-.942-1.438-.42-3.54-1.012z" fill="#6A9A9B"/></g><defs><clipPath id="clip0"><path fill="#fff" d="M0 0h127v133H0z"/></clipPath></defs></svg>
